X: 118
T:Haste To The Wedding
% Nottingham Music Database
S:EF
M:6/8
K:D
P:A
F/2G/2|"D"A2A A2f|"G"ede fdB|"D"A2A AGF|"Em"GFG "A7"EFG|
"D"A2A A2f|"G"ede fdB|"D"A2A "A7"a2g|"D"fdd d2:|
P:B
d/2e/2|"D"fga " ""B7"agf|"Em"gab "A7"bag|"D"fga " ""B7"agf|
"G"gfg "A7"efg|"D"a3 "Bm"f3|"G"ede fdB|"D"A2A "A7"a2g|"D"fdd d2:|<end>
<start>
